public/assets/images/common/logo-dark.svg

<svg width="117" height="40" viewBox="0 0 117 40" fill="none" xmlns="http://www.w3.org/2000/svg"><g filter="url(#filter0_dd_1894_485083)"><mask id="a" style="mask-type:luminance" maskUnits="userSpaceOnUse" x="4" y="3" width="32" height="32"><path d="M28 3H12a8 8 0 00-8 8v16a8 8 0 008 8h16a8 8 0 008-8V11a8 8 0 00-8-8z" fill="#fff"/></mask><g mask="url(#a)"><path d="M28 3H12a8 8 0 00-8 8v16a8 8 0 008 8h16a8 8 0 008-8V11a8 8 0 00-8-8z" fill="#178D72"/><path d="M4 3h32v32H4V3z" fill="url(#paint0_linear_1894_485083)"/><path d="M17.625 9.5a7.125 7.125 0 01-7.125 7.125v4.75h7.125V28.5h4.75a7.125 7.125 0 017.125-7.125v-4.75h-7.125V9.5h-4.75z" fill="url(#paint1_linear_1894_485083)"/></g><path d="M28 3.667H12A7.333 7.333 0 004.667 11v16A7.333 7.333 0 0012 34.333h16A7.333 7.333 0 0035.333 27V11A7.333 7.333 0 0028 3.667z" stroke="url(#paint2_linear_1894_485083)" stroke-width="2"/></g><path d="M113.052 16.46v-5.164a1.712 1.712 0 113.424 0V25.57a2 2 0 01-2 2h-1.424v-1.645c-1.078 1.483-2.265 2.076-4.179 2.076-3.694 0-6.175-2.642-6.175-6.552 0-2.103.701-3.856 1.995-5.07 1.187-1.105 2.697-1.725 4.234-1.725 1.698 0 2.912.54 4.125 1.807zm-3.316 1.078c-1.969 0-3.398 1.645-3.398 3.937 0 2.157 1.429 3.775 3.371 3.775 1.887 0 3.343-1.645 3.343-3.802 0-2.265-1.402-3.91-3.316-3.91zm-19.502-.454a2 2 0 012-2h1.425v1.537c.916-1.429 1.833-1.968 3.397-1.968 1.187 0 2.319.431 3.074 1.16.809.808 1.105 1.806 1.105 3.855v7.9h-3.424V19.83c0-.701-.08-1.105-.297-1.456-.323-.512-.97-.836-1.644-.836-1.322 0-2.211.998-2.211 2.454v7.576h-3.425V17.084zm-1.393 5.065h-9.76c.296 1.726 1.563 2.804 3.262 2.804 1.267 0 2.346-.62 2.885-1.618l3.155.863C87.143 26.625 84.959 28 82.316 28c-3.963 0-6.795-2.804-6.795-6.687 0-3.91 2.724-6.66 6.58-6.66 3.99 0 6.767 2.804 6.767 6.822l-.027.674zm-9.76-1.968h6.255c-.296-1.645-1.483-2.643-3.182-2.643-1.644 0-2.75.944-3.073 2.643z" fill="#fff"/><path d="M69.677 24.171l-2.292 3.398H63.34l4.341-6.202-4.61-6.283h4.314l2.291 3.317 2.212-3.316h4.179l-4.45 6.282 4.369 6.201h-4.152l-2.157-3.397z" fill="#fff"/><path d="M63.85 22.149h-9.76c.297 1.726 1.564 2.804 3.262 2.804 1.268 0 2.346-.62 2.886-1.618l3.154.863C62.152 26.625 59.968 28 57.326 28c-3.964 0-6.795-2.804-6.795-6.687 0-3.91 2.723-6.66 6.579-6.66 3.99 0 6.768 2.804 6.768 6.822l-.027.674zm-9.76-1.968h6.255c-.296-1.645-1.483-2.643-3.181-2.643-1.645 0-2.75.944-3.074 2.643zm-5.067 5.675a1.712 1.712 0 11-3.424 0v-14.56a1.712 1.712 0 013.424 0v14.56z" fill="#fff"/><defs><linearGradient id="paint0_linear_1894_485083" x1="20" y1="3" x2="21.333" y2="35" gradientUnits="userSpaceOnUse"><stop stop-color="#fff" stop-opacity="0"/><stop offset="1" stop-color="#fff" stop-opacity=".12"/></linearGradient><linearGradient id="paint1_linear_1894_485083" x1="20" y1="9.5" x2="20" y2="28.5" gradientUnits="userSpaceOnUse"><stop stop-color="#fff" stop-opacity=".8"/><stop offset="1" stop-color="#fff" stop-opacity=".5"/></linearGradient><linearGradient id="paint2_linear_1894_485083" x1="20" y1="3" x2="20" y2="35" gradientUnits="userSpaceOnUse"><stop stop-color="#fff" stop-opacity=".12"/><stop offset="1" stop-color="#fff" stop-opacity="0"/></linearGradient><filter id="filter0_dd_1894_485083" x=".667" y=".667" width="38.667" height="38.667" filterUnits="userSpaceOnUse" color-interpolation-filters="sRGB"><feFlood flood-opacity="0" result="BackgroundImageFix"/><feColorMatrix in="SourceAlpha" values="0 0 0 0 0 0 0 0 0 0 0 0 0 0 0 0 0 0 127 0" result="hardAlpha"/><feOffset dy="1"/><feGaussianBlur stdDeviation="1"/><feColorMatrix values="0 0 0 0 0.0627451 0 0 0 0 0.0941176 0 0 0 0 0.156863 0 0 0 0.06 0"/><feBlend in2="BackgroundImageFix" result="effect1_dropShadow_1894_485083"/><feColorMatrix in="SourceAlpha" values="0 0 0 0 0 0 0 0 0 0 0 0 0 0 0 0 0 0 127 0" result="hardAlpha"/><feOffset dy="1"/><feGaussianBlur stdDeviation="1.5"/><feColorMatrix values="0 0 0 0 0.0627451 0 0 0 0 0.0941176 0 0 0 0 0.156863 0 0 0 0.1 0"/><feBlend in2="effect1_dropShadow_1894_485083" result="effect2_dropShadow_1894_485083"/><feBlend in="SourceGraphic" in2="effect2_dropShadow_1894_485083" result="shape"/></filter></defs></svg>

<?xml version="1.0" encoding="UTF-8" standalone="no"?>
<svg
   width="10"
   height="10"
   fill="none"
   version="1.1"
   id="svg17"
   sodipodi:docname="logo-dark.svg"
   viewBox="0 0 40 40"
   inkscape:version="1.4.2 (2aeb623e1d, 2025-05-12)"
   xmlns:inkscape="http://www.inkscape.org/namespaces/inkscape"
   xmlns:sodipodi="http://sodipodi.sourceforge.net/DTD/sodipodi-0.dtd"
   xmlns="http://www.w3.org/2000/svg"
   xmlns:svg="http://www.w3.org/2000/svg">
  <sodipodi:namedview
     id="namedview17"
     pagecolor="#ffffff"
     bordercolor="#000000"
     borderopacity="0.25"
     inkscape:showpageshadow="2"
     inkscape:pageopacity="0.0"
     inkscape:pagecheckerboard="0"
     inkscape:deskcolor="#d1d1d1"
     inkscape:zoom="21.879122"
     inkscape:cx="19.310647"
     inkscape:cy="19.3335"
     inkscape:window-width="1920"
     inkscape:window-height="1048"
     inkscape:window-x="1920"
     inkscape:window-y="1080"
     inkscape:window-maximized="1"
     inkscape:current-layer="svg17" />
  <g
     filter="url(#filter0_dd_1894_485083)"
     id="g5"
     transform="translate(-0.667,-0.667)">
    <mask
       id="a"
       width="32"
       height="32"
       x="4"
       y="3"
       maskUnits="userSpaceOnUse">
      <path
         fill="#ffffff"
         d="M 28,3 H 12 a 8,8 0 0 0 -8,8 v 16 a 8,8 0 0 0 8,8 h 16 a 8,8 0 0 0 8,-8 V 11 A 8,8 0 0 0 28,3 Z"
         id="path1" />
    </mask>
    <g
       mask="url(#a)"
       id="g4">
      <path
         fill="#16348c"
         d="M 28,3 H 12 a 8,8 0 0 0 -8,8 v 16 a 8,8 0 0 0 8,8 h 16 a 8,8 0 0 0 8,-8 V 11 A 8,8 0 0 0 28,3 Z"
         id="path2" />
      <path
         fill="url(#paint0_linear_1894_485083)"
         d="M 4,3 H 36 V 35 H 4 Z"
         id="path3"
         style="fill:url(#paint0_linear_1894_485083)" />
      <path
         fill="url(#paint1_linear_1894_485083)"
         d="M 17.625,9.5 A 7.125,7.125 0 0 1 10.5,16.625 v 4.75 h 7.125 V 28.5 h 4.75 A 7.125,7.125 0 0 1 29.5,21.375 v -4.75 H 22.375 V 9.5 Z"
         id="path4"
         style="fill:url(#paint1_linear_1894_485083)" />
    </g>
    <path
       stroke="url(#paint2_linear_1894_485083)"
       stroke-width="2"
       d="M 28,3.667 H 12 A 7.333,7.333 0 0 0 4.667,11 V 27 A 7.333,7.333 0 0 0 12,34.333 H 28 A 7.333,7.333 0 0 0 35.333,27 V 11 A 7.333,7.333 0 0 0 28,3.667 Z"
       id="path5"
       style="stroke:url(#paint2_linear_1894_485083)" />
  </g>
  <defs
     id="defs17">
    <linearGradient
       id="paint0_linear_1894_485083"
       x1="20"
       x2="21.333"
       y1="3"
       y2="35"
       gradientUnits="userSpaceOnUse">
      <stop
         stop-color="#fff"
         stop-opacity="0"
         id="stop8" />
      <stop
         offset="1"
         stop-color="#fff"
         stop-opacity=".12"
         id="stop9" />
    </linearGradient>
    <linearGradient
       id="paint1_linear_1894_485083"
       x1="20"
       x2="20"
       y1="9.5"
       y2="28.5"
       gradientUnits="userSpaceOnUse">
      <stop
         stop-color="#fff"
         stop-opacity=".8"
         id="stop10" />
      <stop
         offset="1"
         stop-color="#fff"
         stop-opacity=".5"
         id="stop11" />
    </linearGradient>
    <linearGradient
       id="paint2_linear_1894_485083"
       x1="20"
       x2="20"
       y1="3"
       y2="35"
       gradientUnits="userSpaceOnUse">
      <stop
         stop-color="#fff"
         stop-opacity=".12"
         id="stop12" />
      <stop
         offset="1"
         stop-color="#fff"
         stop-opacity="0"
         id="stop13" />
    </linearGradient>
    <filter
       id="filter0_dd_1894_485083"
       width="38.667"
       height="38.667"
       x="0.667"
       y="0.667"
       color-interpolation-filters="sRGB"
       filterUnits="userSpaceOnUse">
      <feFlood
         flood-opacity="0"
         result="BackgroundImageFix"
         id="feFlood13" />
      <feColorMatrix
         in="SourceAlpha"
         result="hardAlpha"
         values="0 0 0 0 0 0 0 0 0 0 0 0 0 0 0 0 0 0 127 0"
         id="feColorMatrix13" />
      <feOffset
         dy="1"
         id="feOffset13" />
      <feGaussianBlur
         stdDeviation="1"
         id="feGaussianBlur13" />
      <feColorMatrix
         values="0 0 0 0 0.0627451 0 0 0 0 0.0941176 0 0 0 0 0.156863 0 0 0 0.06 0"
         id="feColorMatrix14" />
      <feBlend
         in2="BackgroundImageFix"
         result="effect1_dropShadow_1894_485083"
         id="feBlend14"
         mode="normal" />
      <feColorMatrix
         in="SourceAlpha"
         result="hardAlpha"
         values="0 0 0 0 0 0 0 0 0 0 0 0 0 0 0 0 0 0 127 0"
         id="feColorMatrix15" />
      <feOffset
         dy="1"
         id="feOffset15" />
      <feGaussianBlur
         stdDeviation="1.5"
         id="feGaussianBlur15" />
      <feColorMatrix
         values="0 0 0 0 0.0627451 0 0 0 0 0.0941176 0 0 0 0 0.156863 0 0 0 0.1 0"
         id="feColorMatrix16" />
      <feBlend
         in2="effect1_dropShadow_1894_485083"
         result="effect2_dropShadow_1894_485083"
         id="feBlend16"
         mode="normal" />
      <feBlend
         in="SourceGraphic"
         in2="effect2_dropShadow_1894_485083"
         result="shape"
         id="feBlend17"
         mode="normal" />
    </filter>
  </defs>
</svg>
